packages/icons/src/assets/raw/outlined/SVG/outlined-finance-littlemachine.svg

<svg viewBox="0 0 24 24" xmlns="http://www.w3.org/2000/svg">
  <path d="M 13.73 20.31 L 6.58 20.31 C 5.728 20.327 5.022 19.652 5 18.8 L 5 6 C 5.032 5.166 5.715 4.505 6.55 4.5 L 13.67 4.5 C 14.515 4.489 15.213 5.156 15.24 6 L 15.24 6.22 L 18.5 6.22 C 18.911 6.197 19.259 6.519 19.27 6.93 L 19.27 14.56 C 19.281 14.967 18.966 15.308 18.56 15.33 L 15.24 15.33 L 15.24 18.79 C 15.24 19.626 14.566 20.305 13.73 20.31 Z M 14.09 19.15 C 14.189 19.057 14.243 18.926 14.24 18.79 L 14.24 6 C 14.229 5.702 13.978 5.469 13.68 5.48 L 6.58 5.48 C 6.276 5.463 6.016 5.696 6 6 L 6 18.79 C 6.026 19.081 6.268 19.306 6.56 19.31 L 12.696 19.31 L 12.696 19.307 L 13.772 19.307 C 13.893 19.293 14.006 19.238 14.09 19.15 Z M 12.36 11.57 L 7.94 11.57 C 7.11 11.532 6.466 10.83 6.5 10 L 6.5 7.75 C 6.483 6.937 7.117 6.258 7.93 6.22 L 12.35 6.22 C 13.171 6.253 13.813 6.939 13.79 7.76 L 13.79 10 C 13.824 10.816 13.186 11.503 12.37 11.53 Z M 8 7.22 C 7.737 7.241 7.538 7.467 7.55 7.73 L 7.55 10.05 C 7.533 10.325 7.745 10.559 8.02 10.57 L 12.38 10.57 C 12.649 10.559 12.857 10.329 12.84 10.06 L 12.84 7.74 C 12.858 7.45 12.621 7.208 12.33 7.22 Z M 18.27 14.33 L 18.27 7.22 L 17.39 7.22 L 17.39 14.33 Z M 15.24 7.22 L 15.24 14.33 L 16.39 14.33 L 16.39 7.22 Z M 7.7 13.81 C 7.316 13.805 7.005 13.494 7 13.11 C 7.01 12.728 7.318 12.42 7.7 12.41 C 8.084 12.415 8.395 12.726 8.4 13.11 C 8.4 13.497 8.087 13.81 7.7 13.81 Z M 7.7 16.07 C 7.316 16.065 7.005 15.754 7 15.37 C 7.01 14.988 7.318 14.68 7.7 14.67 C 8.084 14.675 8.395 14.986 8.4 15.37 C 8.4 15.757 8.087 16.07 7.7 16.07 Z M 7.7 18.28 C 7.318 18.27 7.01 17.962 7 17.58 C 7.005 17.196 7.316 16.885 7.7 16.88 C 8.087 16.88 8.4 17.193 8.4 17.58 C 8.395 17.964 8.084 18.275 7.7 18.28 Z M 10.12 13.81 C 9.736 13.805 9.425 13.494 9.42 13.11 C 9.43 12.728 9.738 12.42 10.12 12.41 C 10.504 12.415 10.815 12.726 10.82 13.11 C 10.82 13.497 10.507 13.81 10.12 13.81 Z M 10.12 16.07 C 9.736 16.065 9.425 15.754 9.42 15.37 C 9.43 14.988 9.738 14.68 10.12 14.67 C 10.504 14.675 10.815 14.986 10.82 15.37 C 10.82 15.757 10.507 16.07 10.12 16.07 Z M 10.12 18.28 C 9.738 18.27 9.43 17.962 9.42 17.58 C 9.425 17.196 9.736 16.885 10.12 16.88 C 10.507 16.88 10.82 17.193 10.82 17.58 C 10.815 17.964 10.504 18.275 10.12 18.28 Z M 12.59 13.81 C 12.206 13.805 11.895 13.494 11.89 13.11 C 11.9 12.728 12.208 12.42 12.59 12.41 C 12.974 12.415 13.285 12.726 13.29 13.11 C 13.29 13.497 12.977 13.81 12.59 13.81 Z M 12.59 16.07 C 12.206 16.065 11.895 15.754 11.89 15.37 C 11.9 14.988 12.208 14.68 12.59 14.67 C 12.974 14.675 13.285 14.986 13.29 15.37 C 13.29 15.757 12.977 16.07 12.59 16.07 Z M 12.59 18.28 C 12.208 18.27 11.9 17.962 11.89 17.58 C 11.895 17.196 12.206 16.885 12.59 16.88 C 12.977 16.88 13.29 17.193 13.29 17.58 C 13.285 17.964 12.974 18.275 12.59 18.28 Z"/>
</svg>

<svg xmlns="http://www.w3.org/2000/svg" viewBox="0 0 24 24">
  <path d="M13.73 20.31H6.58A1.55 1.55 0 015 18.8V6a1.56 1.56 0 011.55-1.5h7.12A1.55 1.55 0 0115.24 6v12.79a1.52 1.52 0 01-1.51 1.52zm-.06-1v.5l.06-.5a.52.52 0 00.36-.16.48.48 0 00.15-.36V6a.54.54 0 00-.56-.52h-7.1A.55.55 0 006 6v12.79a.57.57 0 00.56.52z"/>
  <path d="M12.36 11.57H7.94A1.51 1.51 0 016.5 10V7.75a1.5 1.5 0 011.43-1.53h4.42a1.5 1.5 0 011.44 1.54V10a1.47 1.47 0 01-1.42 1.53zm0-4.35H8a.49.49 0 00-.45.51v2.32a.49.49 0 00.47.52h4.36a.48.48 0 00.46-.51V7.74a.49.49 0 00-.51-.52zM18.53 15.33h-3.79v-1h3.53V7.22h-3.53v-1h3.76a.73.73 0 01.77.71v7.63a.75.75 0 01-.71.77zm-.26-.77zm.23-7.34z"/>
  <path d="M16.39 6.72h1v8.11h-1zM7.7 13.81a.71.71 0 01-.7-.7.72.72 0 01.7-.7.71.71 0 01.7.7.7.7 0 01-.7.7zM7.7 16.07a.71.71 0 01-.7-.7.72.72 0 01.7-.7.71.71 0 01.7.7.7.7 0 01-.7.7zM7.7 18.28a.72.72 0 01-.7-.7.71.71 0 01.7-.7.7.7 0 01.7.7.71.71 0 01-.7.7zM10.12 13.81a.71.71 0 01-.7-.7.72.72 0 01.7-.7.71.71 0 01.7.7.7.7 0 01-.7.7zM10.12 16.07a.71.71 0 01-.7-.7.72.72 0 01.7-.7.71.71 0 01.7.7.7.7 0 01-.7.7zM10.12 18.28a.72.72 0 01-.7-.7.71.71 0 01.7-.7.7.7 0 01.7.7.71.71 0 01-.7.7zM12.59 13.81a.71.71 0 01-.7-.7.72.72 0 01.7-.7.71.71 0 01.7.7.7.7 0 01-.7.7zM12.59 16.07a.71.71 0 01-.7-.7.72.72 0 01.7-.7.71.71 0 01.7.7.7.7 0 01-.7.7zM12.59 18.28a.72.72 0 01-.7-.7.71.71 0 01.7-.7.7.7 0 01.7.7.71.71 0 01-.7.7z"/>
</svg>
